X: 1
T: Chiribim Chiribom
N: Transposed deepest
Z: https://www.free-scores.com/download-sheet-music.php?pdf=80747
O: Traditional
M: C
Q: 1/4=86
L: 1/8
K: Ab
C/F/G/A/ GF/A/ GF/A/ GF|C/F/G/A/ GF z c .f2|
|:CFFF FA A>A|BAGF G/B/ A2 C|
CFFF FA A>A|BAGF G/A/ F3|
EAAA Ac c>c|dcBA B c3|
EAAc eB B>A|GFBA G2 F A/A/|
c3 A/A/ c3 A/A/|dcBA Bc- c A/A/|
c3 A/A/ c3 A/A/|dcBA c A3|
F/d/d/d/- dd/d/ e/c/c/c/- cc/c/|d/B/B/B- BB/B/ cB/A/- A2|
F/d/d/d/- d d/d/ e/c/c/c/- cA/A/|G=EFG F3 z:|
C/F/G/A/ GF/A/ GF/A/ GF|[M:2/4]C/F/G/A/ GF|
[M:C]C/F/G/A/ GF/A/ GF/A/ GF|C/F/G/A/ GF z c .f2|]

